X: 3438
T: BELFAST POLKA
%R: polka
B: James Kerr "Merry Melodies" v.3 p.50 #438
Z: 2016 John Chambers <jc:trillian.mit.edu>
M: 2/4
L: 1/16
K: C
|:\
e2G2e2G2 | efef a2g2 | f2d2B2G2 | cGAB cdef |\
e2G2e2G2 | efef a2g2 | f2d2B2G2 | c2c2c2z2 H::\
b2c'b a2ba | g2G2 GBdg | ^f2A2 Acdf | g2G2 GBdg |
b2c'b a2ba | g2G2 GBdg | ^f2A2 Acdf | g2g2g2"_D.C."z2 ::\
[K:G]\
dddd e2d2 | bbbb c'2b2 | aaaa b2a2 | gggg a2g2 |\
dddd e2d2 | bbbb c'2b2 | aaaa b2a2 | g2g2g2"_D.C."z2 :|

%%sep 1 1 500
%%sep 1 1 500

